X: 9
T: The Rollicking Boys Of Tandragee
R: jig
M: 6/8
L: 1/8
K: Dmix
ABA DEG|AGA c2A|GED C2D|EDC DEG|
ABA DEG|AGA cde|dcA GEG|[1ADD DEG:|[2ADD D3||
Add dcd|Ade gec|d2c cAG|A2B cAG|
Add dcd|Ade gec|dcA GEG|[1ADD D3:|[2ADD DEG||

